dist/svgs/crypto-icons/icons/vnl.svg

<?xml version="1.0" encoding="UTF-8" standalone="yes"?>
<svg xmlns="http://www.w3.org/2000/svg" xmlns:xlink="http://www.w3.org/1999/xlink" width="512px" height="512px" viewBox="0 0 384 384" version="1.1">
  <g id="surface1">
    <path style=" stroke:none;fill-rule:nonzero;fill:rgb(0%,0%,0%);fill-opacity:1;" d="M 373.574219 139.292969 L 328.34375 139.292969 L 358.113281 56.492188 L 294.570312 56.492188 C 280.273438 56.492188 259.222656 66.019531 252.875 83.496094 C 246.519531 100.96875 194.097656 245.925781 194.097656 245.925781 C 194.097656 245.925781 140.480469 97 135.714844 83.894531 C 130.949219 70.789062 117.449219 56.492188 94.414062 56.492188 L 30.472656 56.492188 L 60.277344 139.292969 L 11.210938 139.292969 C 1.679688 139.292969 -1 145.847656 1.382812 152.101562 C 3.765625 158.355469 9.820312 173.277344 12.503906 179.53125 C 15.183594 185.789062 19.550781 187.84375 25.804688 187.84375 L 77.753906 187.84375 L 83.863281 204.824219 L 38.8125 204.824219 C 29.28125 204.824219 26.601562 211.375 28.984375 217.632812 C 31.363281 223.886719 37.421875 238.808594 40.101562 245.058594 C 42.785156 251.316406 47.152344 253.375 53.40625 253.375 L 101.339844 253.375 L 125.390625 320.191406 C 125.390625 320.191406 148.820312 337.664062 194.289062 337.664062 C 239.765625 337.664062 263.597656 319.394531 263.597656 319.394531 L 287.332031 253.375 L 331.378906 253.375 C 337.632812 253.375 342.003906 251.316406 344.683594 245.058594 C 347.363281 238.808594 353.421875 223.886719 355.800781 217.632812 C 358.1875 211.375 355.507812 204.824219 345.972656 204.824219 L 304.785156 204.824219 L 310.882812 187.84375 L 358.980469 187.84375 C 365.234375 187.84375 369.601562 185.789062 372.285156 179.53125 C 374.960938 173.277344 381.019531 158.355469 383.40625 152.101562 C 385.789062 145.851562 383.105469 139.292969 373.574219 139.292969 Z M 373.574219 139.292969 "/>
  </g>
</svg>

<svg xmlns="http://www.w3.org/2000/svg" viewBox="0 0 384 384"><path d="M373.574 139.293h-45.23l29.77-82.8H294.57c-14.297 0-35.347 9.527-41.695 27.003-6.355 17.473-58.777 162.43-58.777 162.43S140.48 97 135.715 83.895c-4.766-13.106-18.266-27.403-41.3-27.403H30.472l29.804 82.801H11.211c-9.531 0-12.211 6.555-9.828 12.809 2.383 6.253 8.437 21.175 11.12 27.43 2.68 6.257 7.048 8.312 13.302 8.312h51.949l6.11 16.98H38.811c-9.53 0-12.21 6.551-9.828 12.809 2.38 6.254 8.438 21.176 11.118 27.426 2.683 6.257 7.05 8.316 13.304 8.316h47.934l24.05 66.816s23.43 17.473 68.9 17.473c45.476 0 69.308-18.27 69.308-18.27l23.734-66.019h44.047c6.254 0 10.625-2.059 13.305-8.316 2.68-6.25 8.738-21.172 11.117-27.426 2.387-6.258-.293-12.809-9.828-12.809h-41.188l6.098-16.98h48.097c6.254 0 10.622-2.055 13.305-8.313 2.676-6.254 8.735-21.176 11.121-27.43 2.383-6.25-.3-12.808-9.832-12.808zm0 0"/></svg>
